exported-svg/radio.svg

<svg height="24" viewBox="0 0 24 24" width="24" xmlns="http://www.w3.org/2000/svg"><path d="m12.4978645 14.07c-1.3807118 0-2.49999996-1.1192881-2.49999996-2.5s1.11928816-2.5 2.49999996-2.5c1.3807119 0 2.5 1.1192881 2.5 2.5s-1.1192881 2.5-2.5 2.5zm0-1c.8284272 0 1.5-.6715729 1.5-1.5s-.6715728-1.5-1.5-1.5c-.8284271 0-1.5.6715729-1.5 1.5s.6715729 1.5 1.5 1.5zm3.8866434-5.38625c-.1953708-.1951535-.1955469-.51173594-.0003934-.70710667s.511736-.19554683.7071067-.00039333c1.2205508 1.21919367 1.9063633 2.87358989 1.9063633 4.59875 0 1.7251601-.6858125 3.3795563-1.9063633 4.59875-.1953707.1951535-.5119532.1949774-.7071067-.0003933-.1951535-.1953708-.1949774-.5119532.0003934-.7071067 1.0327737-1.0316254 1.6130766-2.4314991 1.6130766-3.89125s-.5803029-2.85962459-1.6130766-3.89125zm-7.77328669 7.7725c.19537073.1951535.19554683.5117359.00039333.7071067-.1951535.1953707-.51173594.1955468-.70710667.0003933-1.22055078-1.2191937-1.90636327-2.8735899-1.90636327-4.59875 0-1.72516011.68581249-3.37955633 1.90636327-4.59875.19537073-.1951535.51195317-.1949774.70710667.00039333s.1949774.51195317-.00039333.70710667c-1.03277374 1.03162541-1.61307661 2.4314991-1.61307661 3.89125s.58030287 2.8596246 1.61307661 3.89125zm10.60303659-10.60275c-.1952327-.19529163-.1951849-.51187411.0001067-.70710677.1952917-.19523266.5118742-.19518486.7071068.00010677 4.0990104 4.10024844 4.0990104 10.7467516 0 14.847-.1952326.1952916-.5118151.1953394-.7071068.0001068-.1952916-.1952327-.1953394-.5118152-.0001067-.7071068 3.7086284-3.7097486 3.7086284-9.72325141 0-13.433zm-13.43278649 13.433c.19523266.1952916.19518486.5118741-.00010677.7071068-.19529163.1952326-.51187412.1951848-.70710678-.0001068-4.09901035-4.1002484-4.09901035-10.74675156 0-14.847.19523266-.19529163.51181515-.19533943.70710678-.00010677s.19533943.51181514.00010677.70710677c-3.70862841 3.70974859-3.70862841 9.7232514 0 13.433z"/></svg>

<?xml version="1.0" encoding="UTF-8"?>
<svg width="24px" height="24px" viewBox="0 0 24 24" version="1.1" xmlns="http://www.w3.org/2000/svg" xmlns:xlink="http://www.w3.org/1999/xlink">
    <!-- Generator: Sketch 55.2 (78181) - https://sketchapp.com -->
    <title>radio</title>
    <desc>Created with Sketch.</desc>
    <g id="radio" stroke="none" stroke-width="1" fill="none" fill-rule="evenodd">
        <path d="M12.4978645,14.07 C13.8785764,14.07 14.9978645,12.9507119 14.9978645,11.57 C14.9978645,10.1892881 13.8785764,9.07 12.4978645,9.07 C11.1171527,9.07 9.99786454,10.1892881 9.99786454,11.57 C9.99786454,12.9507119 11.1171527,14.07 12.4978645,14.07 Z M12.4978645,13.07 C11.6694374,13.07 10.9978645,12.3984271 10.9978645,11.57 C10.9978645,10.7415729 11.6694374,10.07 12.4978645,10.07 C13.3262917,10.07 13.9978645,10.7415729 13.9978645,11.57 C13.9978645,12.3984271 13.3262917,13.07 12.4978645,13.07 Z" id="Oval" fill="#000000" fill-rule="nonzero"></path>
        <path d="M16.3845079,7.68375 C16.1891371,7.4885965 16.188961,7.17201406 16.3841145,6.97664333 C16.579268,6.7812726 16.8958505,6.7810965 17.0912212,6.97625 C18.311772,8.19544367 18.9975845,9.84983989 18.9975845,11.575 C18.9975845,13.3001601 18.311772,14.9545563 17.0912212,16.17375 C16.8958505,16.3689035 16.579268,16.3687274 16.3841145,16.1733567 C16.188961,15.9779859 16.1891371,15.6614035 16.3845079,15.46625 C17.4172816,14.4346246 17.9975845,13.0347509 17.9975845,11.575 C17.9975845,10.1152491 17.4172816,8.71537541 16.3845079,7.68375 Z M8.61122121,15.45625 C8.80659194,15.6514035 8.80676804,15.9679859 8.61161454,16.1633567 C8.41646104,16.3587274 8.0998786,16.3589035 7.90450787,16.16375 C6.68395709,14.9445563 5.9981446,13.2901601 5.9981446,11.565 C5.9981446,9.83983989 6.68395709,8.18544367 7.90450787,6.96625 C8.0998786,6.7710965 8.41646104,6.7712726 8.61161454,6.96664333 C8.80676804,7.16201406 8.80659194,7.4785965 8.61122121,7.67375 C7.57844747,8.70537541 6.9981446,10.1052491 6.9981446,11.565 C6.9981446,13.0247509 7.57844747,14.4246246 8.61122121,15.45625 Z M19.2142578,4.8535 C19.0190251,4.65820837 19.0190729,4.34162589 19.2143645,4.14639323 C19.4096562,3.95116057 19.7262387,3.95120837 19.9214713,4.1465 C24.0204817,8.24674844 24.0204817,14.8932516 19.9214713,18.9935 C19.7262387,19.1887916 19.4096562,19.1888394 19.2143645,18.9936068 C19.0190729,18.7983741 19.0190251,18.4817916 19.2142578,18.2865 C22.9228862,14.5767514 22.9228862,8.56324859 19.2142578,4.8535 Z M5.78147131,18.2865 C5.97670397,18.4817916 5.97665617,18.7983741 5.78136454,18.9936068 C5.58607291,19.1888394 5.26949042,19.1887916 5.07425776,18.9935 C0.975247412,14.8932516 0.975247412,8.24674844 5.07425776,4.1465 C5.26949042,3.95120837 5.58607291,3.95116057 5.78136454,4.14639323 C5.97665617,4.34162589 5.97670397,4.65820837 5.78147131,4.8535 C2.0728429,8.56324859 2.0728429,14.5767514 5.78147131,18.2865 Z" id="Shape" fill="#000000" fill-rule="nonzero"></path>
    </g>
</svg>
